src/images/svg/telegram.svg

<svg width="22" height="16" viewBox="0 0 22 16" xmlns="http://www.w3.org/2000/svg">
<path d="M8.67148 10.5238L8.33402 14.9538C8.81683 14.9538 9.02594 14.7602 9.2767 14.5278L11.5403 12.5088L16.2307 15.7146C17.0909 16.162 17.697 15.9264 17.9291 14.976L21.0078 1.51162L21.0087 1.51083C21.2815 0.324011 20.5488 -0.140087 19.7107 0.151065L1.61376 6.61749C0.378681 7.06493 0.397382 7.70753 1.40381 7.99868L6.03047 9.34178L16.7773 3.06576C17.283 2.75319 17.7429 2.92613 17.3646 3.2387L8.67148 10.5238Z" fill="white"/>
</svg>

<svg width="22" height="16" xmlns="http://www.w3.org/2000/svg"><path d="M8.671 10.524l-.337 4.43c.483 0 .692-.194.943-.426l2.263-2.02 4.69 3.207c.86.447 1.467.211 1.7-.739l3.078-13.464V1.51c.274-1.187-.46-1.651-1.297-1.36L1.614 6.617C.379 7.065.397 7.707 1.404 8L6.03 9.342l10.747-6.276c.506-.313.966-.14.588.173L8.67 10.524z" fill="#fff"/></svg>
